( Generated by Carbide Copper )
( Material Size )
( X= 30.000, Y= 20.000, Z= 1.580 )
()
G17
G21
G54
G90
M05
(  )
T501 M06
( Contour )
M03 S10000
G0  X4.405 Y18.522
G0  Z3.000
G01 F400 Z0
G01 F400 Z-0.100
G01F400X3.730 Y18.378
X3.100 Y18.098
X2.542 Y17.692
X2.080 Y17.180
X1.735 Y16.582
X1.522 Y15.926
X1.450 Y15.240
X1.522 Y14.554
X1.735 Y13.898
X2.080 Y13.300
X2.542 Y12.788
X3.100 Y12.382
X3.730 Y12.102
X4.370 Y11.966
X4.295 Y7.068
X3.730 Y6.948
X3.100 Y6.668
X2.542 Y6.262
X2.080 Y5.750
X1.735 Y5.152
X1.522 Y4.496
X1.450 Y3.810
X1.522 Y3.124
X1.735 Y2.468
X2.080 Y1.870
X2.542 Y1.358
X3.100 Y0.952
X3.730 Y0.672
X4.405 Y0.528
X5.095 Y0.528
X5.769 Y0.672
X6.400 Y0.952
X6.958 Y1.358
X7.419 Y1.870
X7.764 Y2.468
X7.978 Y3.124
X8.050 Y3.810
X7.978 Y4.496
X7.764 Y5.152
X7.419 Y5.750
X6.958 Y6.262
X6.400 Y6.668
X5.769 Y6.948
X5.095 Y7.092
X4.820 Y7.092
X5.042 Y7.243
X8.182 Y7.243
X8.182 Y3.804
X8.189 Y3.731
X8.214 Y3.656
X8.253 Y3.587
X8.300 Y3.536
X9.059 Y2.777
X8.989 Y2.658
X9.152 Y2.029
X9.712 Y1.699
X10.049 Y1.786
X10.849 Y0.987
X10.910 Y0.942
X10.983 Y0.910
X11.060 Y0.893
X17.489 Y0.893
X17.567 Y0.910
X17.639 Y0.942
X17.701 Y0.987
X18.502 Y1.788
X18.638 Y1.759
X18.802 Y1.759
X18.938 Y1.788
X19.739 Y0.987
X19.800 Y0.942
X19.873 Y0.910
X19.950 Y0.893
X22.569 Y0.893
X22.647 Y0.910
X22.719 Y0.942
X22.781 Y0.987
X23.582 Y1.788
X23.718 Y1.759
X23.882 Y1.759
X24.042 Y1.793
X24.192 Y1.860
X24.325 Y1.957
X24.435 Y2.079
X24.517 Y2.221
X24.568 Y2.377
X24.585 Y2.540
X24.568 Y2.703
X24.517 Y2.859
X24.435 Y3.002
X24.325 Y3.123
X24.192 Y3.220
X24.042 Y3.287
X23.882 Y3.321
X23.718 Y3.321
X23.557 Y3.287
X23.407 Y3.220
X23.274 Y3.123
X23.165 Y3.002
X23.082 Y2.859
X23.032 Y2.703
X23.015 Y2.540
X23.032 Y2.377
X23.049 Y2.324
X22.372 Y1.647
X20.147 Y1.647
X19.471 Y2.324
X19.488 Y2.377
X19.505 Y2.540
X19.488 Y2.703
X19.437 Y2.859
X19.355 Y3.002
X19.245 Y3.123
X19.112 Y3.220
X18.962 Y3.287
X18.802 Y3.321
X18.638 Y3.321
X18.477 Y3.287
X18.327 Y3.220
X18.194 Y3.123
X18.085 Y3.002
X18.003 Y2.859
X17.952 Y2.703
X17.935 Y2.540
X17.952 Y2.377
X17.969 Y2.324
X17.292 Y1.647
X11.257 Y1.647
X10.601 Y2.303
X10.671 Y2.422
X10.508 Y3.051
X9.948 Y3.381
X9.610 Y3.294
X8.938 Y3.966
X8.938 Y15.084
X9.987 Y16.133
X10.722 Y16.133
X10.722 Y14.988
X10.555 Y14.914
X10.370 Y14.780
X10.218 Y14.611
X10.104 Y14.413
X10.034 Y14.197
X10.010 Y13.970
X10.034 Y13.743
X10.104 Y13.527
X10.218 Y13.329
X10.370 Y13.160
X10.555 Y13.026
X10.763 Y12.933
X10.986 Y12.886
X11.214 Y12.886
X11.437 Y12.933
X11.645 Y13.026
X11.829 Y13.160
X11.982 Y13.329
X12.096 Y13.527
X12.166 Y13.743
X12.190 Y13.970
X12.166 Y14.197
X12.096 Y14.413
X11.982 Y14.611
X11.829 Y14.780
X11.645 Y14.914
X11.478 Y14.988
X11.478 Y16.133
X17.072 Y16.133
X17.072 Y14.988
X16.905 Y14.914
X16.721 Y14.780
X16.568 Y14.611
X16.454 Y14.413
X16.384 Y14.197
X16.360 Y13.970
X16.384 Y13.743
X16.454 Y13.527
X16.568 Y13.329
X16.721 Y13.160
X16.905 Y13.026
X17.113 Y12.933
X17.336 Y12.886
X17.564 Y12.886
X17.787 Y12.933
X17.995 Y13.026
X18.179 Y13.160
X18.332 Y13.329
X18.445 Y13.527
X18.516 Y13.743
X18.540 Y13.970
X18.516 Y14.197
X18.445 Y14.413
X18.332 Y14.611
X18.179 Y14.780
X17.995 Y14.914
X17.828 Y14.988
X17.828 Y16.133
X22.372 Y16.133
X23.422 Y15.084
X23.422 Y14.988
X23.255 Y14.914
X23.071 Y14.780
X22.918 Y14.611
X22.804 Y14.413
X22.734 Y14.197
X22.710 Y13.970
X22.734 Y13.743
X22.804 Y13.527
X22.918 Y13.329
X23.071 Y13.160
X23.255 Y13.026
X23.463 Y12.933
X23.686 Y12.886
X23.914 Y12.886
X24.137 Y12.933
X24.345 Y13.026
X24.529 Y13.160
X24.682 Y13.329
X24.796 Y13.527
X24.866 Y13.743
X24.890 Y13.970
X24.866 Y14.197
X24.796 Y14.413
X24.682 Y14.611
X24.529 Y14.780
X24.345 Y14.914
X24.178 Y14.988
X24.178 Y15.247
X24.170 Y15.319
X24.146 Y15.394
X24.106 Y15.463
X24.060 Y15.514
X22.781 Y16.793
X22.719 Y16.838
X22.647 Y16.870
X22.569 Y16.887
X9.790 Y16.887
X9.713 Y16.870
X9.640 Y16.838
X9.579 Y16.793
X8.300 Y15.514
X8.253 Y15.463
X8.214 Y15.394
X8.189 Y15.319
X8.182 Y15.247
X8.182 Y7.997
X5.128 Y7.997
X5.128 Y11.965
X5.769 Y12.102
X6.400 Y12.382
X6.958 Y12.788
X7.419 Y13.300
X7.764 Y13.898
X7.978 Y14.554
X8.050 Y15.240
X7.978 Y15.926
X7.764 Y16.582
X7.419 Y17.180
X6.958 Y17.692
X6.400 Y18.098
X5.769 Y18.378
X5.095 Y18.522
X4.405 Y18.522
G0 Z3.000
G0  X12.551 Y15.059
G0  Z3.000
G01 F400 Z0
G01 F400 Z-0.100
G01F400X12.551 Y12.881
X13.262 Y12.881
X13.262 Y9.046
X12.212 Y7.997
X10.543 Y7.997
X10.508 Y8.131
X9.948 Y8.461
X9.319 Y8.298
X8.989 Y7.738
X9.152 Y7.109
X9.712 Y6.779
X10.341 Y6.942
X10.518 Y7.243
X12.409 Y7.243
X12.487 Y7.260
X12.559 Y7.292
X12.621 Y7.337
X13.900 Y8.616
X13.946 Y8.667
X13.986 Y8.736
X14.010 Y8.811
X14.018 Y8.883
X14.018 Y12.881
X14.729 Y12.881
X14.729 Y15.059
X12.551 Y15.059
G0 Z3.000
G0  X18.901 Y15.059
G0  Z3.000
G01 F400 Z0
G01 F400 Z-0.100
G01F400X18.901 Y12.881
X19.612 Y12.881
X19.612 Y11.424
X19.619 Y11.351
X19.644 Y11.276
X19.683 Y11.207
X19.730 Y11.156
X20.509 Y10.377
X20.492 Y10.323
X20.475 Y10.160
X20.492 Y9.997
X20.543 Y9.841
X20.625 Y9.699
X20.734 Y9.577
X20.867 Y9.480
X21.017 Y9.413
X21.178 Y9.379
X21.342 Y9.379
X21.502 Y9.413
X21.652 Y9.480
X21.785 Y9.577
X21.895 Y9.699
X21.977 Y9.841
X22.028 Y9.997
X22.045 Y10.160
X22.028 Y10.323
X21.977 Y10.479
X21.895 Y10.622
X21.785 Y10.744
X21.652 Y10.840
X21.502 Y10.907
X21.342 Y10.941
X21.178 Y10.941
X21.042 Y10.912
X20.368 Y11.586
X20.368 Y12.881
X21.079 Y12.881
X21.079 Y15.059
X18.901 Y15.059
G0 Z3.000
G0  X25.251 Y15.059
G0  Z3.000
G01 F400 Z0
G01 F400 Z-0.100
G01F400X25.251 Y13.415
X24.810 Y12.974
X24.763 Y12.923
X24.724 Y12.854
X24.699 Y12.779
X24.692 Y12.707
X24.692 Y6.506
X21.478 Y3.292
X21.342 Y3.321
X21.178 Y3.321
X21.017 Y3.287
X20.867 Y3.220
X20.734 Y3.123
X20.625 Y3.002
X20.543 Y2.859
X20.492 Y2.703
X20.475 Y2.540
X20.492 Y2.377
X20.543 Y2.221
X20.625 Y2.079
X20.734 Y1.957
X20.867 Y1.860
X21.017 Y1.793
X21.178 Y1.759
X21.342 Y1.759
X21.502 Y1.793
X21.652 Y1.860
X21.785 Y1.957
X21.895 Y2.079
X21.977 Y2.221
X22.028 Y2.377
X22.045 Y2.540
X22.028 Y2.703
X22.011 Y2.757
X25.330 Y6.076
X25.376 Y6.127
X25.416 Y6.196
X25.440 Y6.271
X25.448 Y6.344
X25.448 Y12.544
X25.785 Y12.881
X27.429 Y12.881
X27.429 Y15.059
X25.251 Y15.059
G0 Z3.000
G0  X18.638 Y10.941
G0  Z3.000
G01 F400 Z0
G01 F400 Z-0.100
G01F400X18.477 Y10.907
X18.327 Y10.840
X18.194 Y10.744
X18.085 Y10.622
X18.003 Y10.479
X17.952 Y10.323
X17.935 Y10.160
X17.952 Y9.997
X17.969 Y9.944
X16.024 Y7.998
X15.586 Y8.011
X15.545 Y8.082
X15.435 Y8.204
X15.302 Y8.300
X15.152 Y8.367
X14.992 Y8.401
X14.828 Y8.401
X14.667 Y8.367
X14.517 Y8.300
X14.384 Y8.204
X14.275 Y8.082
X14.193 Y7.939
X14.142 Y7.783
X14.125 Y7.620
X14.142 Y7.457
X14.193 Y7.301
X14.275 Y7.159
X14.384 Y7.037
X14.517 Y6.940
X14.667 Y6.873
X14.828 Y6.839
X14.992 Y6.839
X15.152 Y6.873
X15.302 Y6.940
X15.435 Y7.037
X15.546 Y7.160
X15.592 Y7.243
X16.219 Y7.243
X16.297 Y7.260
X16.369 Y7.292
X16.431 Y7.337
X18.502 Y9.408
X18.638 Y9.379
X18.802 Y9.379
X18.962 Y9.413
X19.112 Y9.480
X19.245 Y9.577
X19.355 Y9.699
X19.437 Y9.841
X19.488 Y9.997
X19.505 Y10.160
X19.488 Y10.323
X19.437 Y10.479
X19.355 Y10.622
X19.245 Y10.744
X19.112 Y10.840
X18.962 Y10.907
X18.802 Y10.941
X18.638 Y10.941
G0 Z3.000
G0  X26.258 Y10.941
G0  Z3.000
G01 F400 Z0
G01 F400 Z-0.100
G01F400X26.097 Y10.907
X25.947 Y10.840
X25.814 Y10.744
X25.705 Y10.622
X25.623 Y10.479
X25.572 Y10.323
X25.555 Y10.160
X25.572 Y9.997
X25.623 Y9.841
X25.705 Y9.699
X25.814 Y9.577
X25.947 Y9.480
X25.962 Y9.474
X25.962 Y3.226
X25.947 Y3.220
X25.814 Y3.123
X25.705 Y3.002
X25.623 Y2.859
X25.572 Y2.703
X25.555 Y2.540
X25.572 Y2.377
X25.623 Y2.221
X25.705 Y2.079
X25.814 Y1.957
X25.947 Y1.860
X26.097 Y1.793
X26.258 Y1.759
X26.422 Y1.759
X26.582 Y1.793
X26.732 Y1.860
X26.865 Y1.957
X26.975 Y2.079
X27.057 Y2.221
X27.108 Y2.377
X27.125 Y2.540
X27.108 Y2.703
X27.057 Y2.859
X26.975 Y3.002
X26.865 Y3.123
X26.732 Y3.220
X26.718 Y3.226
X26.718 Y9.474
X26.732 Y9.480
X26.865 Y9.577
X26.975 Y9.699
X27.057 Y9.841
X27.108 Y9.997
X27.125 Y10.160
X27.108 Y10.323
X27.057 Y10.479
X26.975 Y10.622
X26.865 Y10.744
X26.732 Y10.840
X26.582 Y10.907
X26.422 Y10.941
X26.258 Y10.941
G0 Z3.000
G0  X23.718 Y10.941
G0  Z3.000
G01 F400 Z0
G01 F400 Z-0.100
G01F400X23.557 Y10.907
X23.407 Y10.840
X23.274 Y10.744
X23.165 Y10.622
X23.082 Y10.479
X23.032 Y10.323
X23.015 Y10.160
X23.032 Y9.997
X23.049 Y9.944
X16.024 Y2.918
X15.586 Y2.931
X15.545 Y3.002
X15.435 Y3.123
X15.302 Y3.220
X15.152 Y3.287
X14.992 Y3.321
X14.828 Y3.321
X14.667 Y3.287
X14.517 Y3.220
X14.384 Y3.123
X14.275 Y3.002
X14.193 Y2.859
X14.142 Y2.703
X14.125 Y2.540
X14.142 Y2.377
X14.193 Y2.221
X14.275 Y2.079
X14.384 Y1.957
X14.517 Y1.860
X14.667 Y1.793
X14.828 Y1.759
X14.992 Y1.759
X15.152 Y1.793
X15.302 Y1.860
X15.435 Y1.957
X15.546 Y2.079
X15.592 Y2.163
X16.219 Y2.163
X16.297 Y2.180
X16.369 Y2.212
X16.431 Y2.257
X23.582 Y9.408
X23.718 Y9.379
X23.882 Y9.379
X24.042 Y9.413
X24.192 Y9.480
X24.325 Y9.577
X24.435 Y9.699
X24.517 Y9.841
X24.568 Y9.997
X24.585 Y10.160
X24.568 Y10.323
X24.517 Y10.479
X24.435 Y10.622
X24.325 Y10.744
X24.192 Y10.840
X24.042 Y10.907
X23.882 Y10.941
X23.718 Y10.941
G0 Z3.000
M05
(  )
T608 M06
( Drilling )
M03 S10000
G00 X14.910 Y7.620
G0  Z3.000
G01 F320.0 Z-1.780
G00 Z3.000
G00 X9.830 Y7.620
G0  Z3.000
G01 F320.0 Z-1.780
G00 Z3.000
G00 X14.910 Y2.540
G0  Z3.000
G01 F320.0 Z-1.780
G00 Z3.000
G00 X9.830 Y2.540
G0  Z3.000
G01 F320.0 Z-1.780
G00 Z3.000
G00 X26.340 Y2.540
G0  Z3.000
G01 F320.0 Z-1.780
G00 Z3.000
G00 X23.800 Y2.540
G0  Z3.000
G01 F320.0 Z-1.780
G00 Z3.000
G00 X23.800 Y10.160
G0  Z3.000
G01 F320.0 Z-1.780
G00 Z3.000
G00 X26.340 Y10.160
G0  Z3.000
G01 F320.0 Z-1.780
G00 Z3.000
G00 X21.260 Y2.540
G0  Z3.000
G01 F320.0 Z-1.780
G00 Z3.000
G00 X18.720 Y2.540
G0  Z3.000
G01 F320.0 Z-1.780
G00 Z3.000
G00 X21.260 Y10.160
G0  Z3.000
G01 F320.0 Z-1.780
G00 Z3.000
G00 X18.720 Y10.160
G0  Z3.000
G01 F320.0 Z-1.780
G00 Z3.000
G00 X17.450 Y13.970
G0  Z3.000
G01 F320.0 Z-1.780
G00 Z3.000
G00 X19.990 Y13.970
G0  Z3.000
G01 F320.0 Z-1.780
G00 Z3.000
G00 X23.800 Y13.970
G0  Z3.000
G01 F320.0 Z-1.780
G00 Z3.000
G00 X26.340 Y13.970
G0  Z3.000
G01 F320.0 Z-1.780
G00 Z3.000
G00 X11.100 Y13.970
G0  Z3.000
G01 F320.0 Z-1.780
G00 Z3.000
G00 X13.640 Y13.970
G0  Z3.000
G01 F320.0 Z-1.780
G00 Z3.000
G00 X4.750 Y15.240
G0  Z3.000
G01 F320.0 Z-1.780
G00 Z3.000
G00 X4.750 Y3.810
G0  Z3.000
G01 F320.0 Z-1.780
G00 Z3.000
M05
(  )
T112 M06
( Routing )
M03 S10000
G0  X-0.793 Y20.794
G0  Z3.000
G01 F200 Z0
G01 F200 Z-0.790
G01F200X-0.793 Y-0.793
X30.794 Y-0.793
X30.794 Y20.794
X-0.793 Y20.794
G0 Z3.000
M03 S10000
G0  X-0.793 Y20.794
G0  Z3.000
G01 F200 Z0
G01 F200 Z-1.580
G01F200X-0.793 Y-0.793
X30.794 Y-0.793
X30.794 Y20.794
X-0.793 Y20.794
G0 Z3.000
G00 Z3.000
M05
M30
%